public_html/assets/img/shapes/slide-1.svg

<svg width="2021" height="1180" viewBox="0 0 2021 1180" version="1.1" xmlns="http://www.w3.org/2000/svg" xmlns:xlink="http://www.w3.org/1999/xlink">
<title>slide-0</title>
<desc>Created using Figma</desc>
<g id="Canvas" transform="translate(-7600 -1866)">
<g id="slide-0">
<use xlink:href="#path0_fill" transform="translate(7600.99 1866.44)" fill="#FFFFFF"/>
</g>
</g>
<defs>
<path id="path0_fill" d="M 267.236 945.75L 267.009 945.561C 81.9348 792.643 -56.7197 644.011 23.0094 417.561C 91.2295 223.8 207.009 125.561 483.009 29.5614C 759.009 -66.4386 1091.01 85.5614 1355.01 281.561C 1619.01 477.561 1795.01 465.561 1935.01 629.561C 2047.69 761.561 2046.34 942.157 1935.01 1077.56C 1788.89 1255.28 1541.41 1162.47 1318.25 1078.78L 1315.01 1077.56C 1091.01 993.561 896.887 1218.06 639.009 1161.56C 488.527 1128.59 385.974 1043.86 267.236 945.75Z"/>
</defs>
</svg>

<svg width="2021" height="1180" viewBox="0 0 2021 1180" xmlns="http://www.w3.org/2000/svg" xmlns:xlink="http://www.w3.org/1999/xlink"><title>slide-0</title><desc>Created using Figma</desc><use xlink:href="#a" transform="translate(.99 .44)" fill="#FFF"/><defs><path id="a" d="M267.236 945.75l-.227-.189c-185.074-152.918-323.729-301.55-244-528 68.22-193.761 184-292 460-388s608.001 56 872.001 252 440 184 580 348c112.68 132 111.33 312.596 0 447.999-146.12 177.72-393.6 84.91-616.76 1.22l-3.24-1.22c-224-83.999-418.123 140.5-676.001 84-150.482-32.97-253.035-117.7-371.773-215.81z"/></defs></svg>
